X: 1558
T: Cloone Hornpipe., The
T: crannciuil cluain.
N:"Collected from Early"
R:Hornpipe
B:O'Neill's 1558
M:2/4
K:G
B>c|d>de>d B2c>A|"~"G>GA>F G2B>c|d>gf>g e>dc>d|e>cA>F A>FE>D|
d>de>d Bc>A|"~"G>GA>F G2d>c|(3BdB G>B (3ACA F>A|G2G>F G2:|
(Bc)|d>gf>g e>dc<d|e>de<f g2b>g|e>dc>G A>GF>G|A2D2 D2(3DEF|
G>BA>c (3BdB G>B|(3cec A>c (3gbg d>c|(3AcA F>A|G2G>F G2:|


